icons/file-zip-line.svg

<svg viewBox="0 0 24 24" fill="currentColor" xmlns="http://www.w3.org/2000/svg">
    <path d="M20 22H4C3.44772 22 3 21.5523 3 21V3C3 2.44772 3.44772 2 4 2H20C20.5523 2 21 2.44772 21 3V21C21 21.5523 20.5523 22 20 22ZM19 20V4H5V20H19ZM14 12V17H10V14H12V12H14ZM12 4H14V6H12V4ZM10 6H12V8H10V6ZM12 8H14V10H12V8ZM10 10H12V12H10V10Z"/>
</svg>

<svg xmlns="http://www.w3.org/2000/svg" viewBox="0 0 24 24">
    <g>
        <path fill="none" d="M0 0h24v24H0z"/>
        <path d="M20 22H4a1 1 0 0 1-1-1V3a1 1 0 0 1 1-1h16a1 1 0 0 1 1 1v18a1 1 0 0 1-1 1zm-1-2V4H5v16h14zm-5-8v5h-4v-3h2v-2h2zm-2-8h2v2h-2V4zm-2 2h2v2h-2V6zm2 2h2v2h-2V8zm-2 2h2v2h-2v-2z"/>
    </g>
</svg>
